X:69
T:Throw The Beetle At Her
T:Minor Slip
R:hop jig
H:Also in B minor #64
B:CRE IV #43
Z:id:hn-slipjig-69
M:9/8
L:1/8
K:Em
B2E EDE c2A | B2E E2G FED | B2E EDE c2A |1 ABc dAG FGA :|2 ABc dAG FED |
|: G2B BAB BAB | G2B BAB AFD | G2B BAB BAB |1 ABc dAG FED :|2 ABc dAG FGA ||
<end>
<start>
